icons/communication/comment-link-24.svg

<svg width="24" height="24" viewBox="0 0 24 24" fill="none" xmlns="http://www.w3.org/2000/svg">
<path d="M16.7197 1.71967C16.579 1.86032 16.5 2.05109 16.5 2.25C16.5 2.44891 16.579 2.63968 16.7197 2.78033C16.8603 2.92098 17.0511 3 17.25 3H20.94L14.72 9.22C14.6463 9.28866 14.5872 9.37146 14.5462 9.46346C14.5052 9.55546 14.4832 9.65477 14.4814 9.75548C14.4796 9.85618 14.4982 9.95621 14.5359 10.0496C14.5736 10.143 14.6297 10.2278 14.701 10.299C14.7722 10.3703 14.857 10.4264 14.9504 10.4641C15.0438 10.5018 15.1438 10.5204 15.2445 10.5186C15.3452 10.5168 15.4445 10.4948 15.5365 10.4538C15.6285 10.4128 15.7113 10.3537 15.78 10.28L22 4.06V7.75C22 7.94891 22.079 8.13968 22.2197 8.28033C22.3603 8.42098 22.5511 8.5 22.75 8.5C22.9489 8.5 23.1397 8.42098 23.2803 8.28033C23.421 8.13968 23.5 7.94891 23.5 7.75V2.25C23.5 2.05109 23.421 1.86032 23.2803 1.71967C23.1397 1.57902 22.9489 1.5 22.75 1.5H17.25C17.0511 1.5 16.8603 1.57902 16.7197 1.71967Z" fill="black"/>
<path d="M1 3.75C1 2.7835 1.7835 2 2.75 2H13.25C13.6642 2 14 2.33579 14 2.75C14 3.16421 13.6642 3.5 13.25 3.5H2.75C2.61193 3.5 2.5 3.61193 2.5 3.75V16.25C2.5 16.3881 2.61193 16.5 2.75 16.5H5.5C6.05228 16.5 6.5 16.9477 6.5 17.5V20.1478L9.95446 16.9633C10.2776 16.6654 10.7011 16.5 11.1406 16.5H21.25C21.3881 16.5 21.5 16.3881 21.5 16.25V11.75C21.5 11.3358 21.8358 11 22.25 11C22.6642 11 23 11.3358 23 11.75V16.25C23 17.2165 22.2165 18 21.25 18H11.1406C11.0778 18 11.0173 18.0236 10.9712 18.0662L7.09724 21.6374C6.29633 22.3757 5 21.8076 5 20.7183V18H2.75C1.7835 18 1 17.2165 1 16.25V3.75Z" fill="black"/>
</svg>

<svg xmlns="http://www.w3.org/2000/svg" width="24" height="24"><path d="M16.72 1.72A.75.75 0 0017.25 3h3.69l-6.22 6.22a.75.75 0 101.06 1.06L22 4.06v3.69a.75.75 0 101.5 0v-5.5a.75.75 0 00-.75-.75h-5.5a.75.75 0 00-.53.22z"/><path d="M1 3.75C1 2.784 1.784 2 2.75 2h10.5a.75.75 0 010 1.5H2.75a.25.25 0 00-.25.25v12.5c0 .138.112.25.25.25H5.5a1 1 0 011 1v2.648l3.454-3.185a1.75 1.75 0 011.187-.463H21.25a.25.25 0 00.25-.25v-4.5a.75.75 0 011.5 0v4.5A1.75 1.75 0 0121.25 18H11.14a.25.25 0 00-.169.066l-3.874 3.571c-.8.739-2.097.17-2.097-.919V18H2.75A1.75 1.75 0 011 16.25V3.75z"/></svg>
